;FLAVOR:Marlin
;TIME:1653
;Filament used: 0.883597m
;Layer height: 0.1
;MINX:138.164
;MINY:138.164
;MINZ:0.3
;MAXX:161.836
;MAXY:161.836
;MAXZ:21
;TARGET_MACHINE.NAME:SV06 Plus
;POSTPROCESSED
;  [ResinNozzlePosition]
;Generated with Cura_SteamEngine 5.12.0
M140 S60
M105
M190 S60
M104 S215
M105
M109 S215
G28 ;Home

M420 S1;
G92 E0 ;Reset Extruder
G1 Z2.0 F3000 ;Move Z Axis up
G1 X10.1 Y20 Z0.28 F5000.0 ;Move to start position
G1 X10.1 Y200.0 Z0.28 F1500.0 E15 ;Draw the first line
G1 X10.4 Y200.0 Z0.28 F5000.0 ;Move to side a little
G1 X10.4 Y20 Z0.28 F1500.0 E30 ;Draw the second line
G92 E0 ;Reset Extruder
G1 Z2.0 F3000 ;Move Z Axis up

M82 ;absolute extrusion mode
G92 E0
G92 E0
G1 F2400 E-0.5
;LAYER_COUNT:208
;LAYER:0
M107
M204 S500
M205 X5 Y5
G0 F4800 X138.688 Y138.762 Z0.3
M204 S1000
;TYPE:SKIRT
G1 F2400 E0
G1 F3600 X139.131 Y138.413 E0.0422
G1 X139.49 Y138.258 E0.07147
G1 X139.933 Y138.178 E0.10516
G1 X140.591 Y138.168 E0.1544
G1 X159.321 Y138.164 E1.55607
G1 X159.99 Y138.174 E1.60614
G1 X160.5 Y138.275 E1.64505
G1 X160.963 Y138.478 E1.68288
G1 X161.146 Y138.614 E1.69994
G1 X161.558 Y139.066 E1.74571
G1 X161.738 Y139.474 E1.77908
G1 X161.819 Y139.896 E1.81124
G1 X161.832 Y140.542 E1.85959
G1 X161.836 Y159.38 E3.26934
G1 X161.817 Y160.16 E3.32773
G1 X161.725 Y160.57 E3.35917
G1 X161.531 Y160.964 E3.39204
G1 X161.241 Y161.324 E3.42663
G1 X160.728 Y161.65 E3.47212
G1 X160.535 Y161.73 E3.48776
G1 X160.061 Y161.822 E3.52389
G1 X159.419 Y161.83 E3.57194
G1 X140.596 Y161.836 E4.98056
G1 X139.922 Y161.825 E5.03101
G1 X139.564 Y161.758 E5.05826
G1 X139.116 Y161.569 E5.09465
G1 X138.762 Y161.311 E5.12743
G1 X138.411 Y160.864 E5.16996
G1 X138.257 Y160.504 E5.19927
G1 X138.178 Y160.066 E5.23257
G1 X138.168 Y159.38 E5.28392
G1 X138.164 Y140.589 E6.69015
G1 X138.175 Y139.916 E6.74052
G1 X138.245 Y139.552 E6.76826
G1 X138.435 Y139.108 E6.8044
G1 X138.688 Y138.762 E6.83647
M204 S500
G0 F4800 X139.158 Y139.135
M204 S1000
G1 F3600 X139.395 Y138.952 E6.85888
G1 X139.611 Y138.846 E6.87689
G1 X139.942 Y138.778 E6.90218
G1 X140.591 Y138.768 E6.95075
G1 X159.312 Y138.764 E8.35174
G1 X159.924 Y138.773 E8.39755
G1 X160.383 Y138.864 E8.43256
G1 X160.702 Y139.018 E8.45907
G1 X161.05 Y139.4 E8.49774
G1 X161.152 Y139.602 E8.51468
G1 X161.219 Y139.908 E8.53812
G1 X161.232 Y140.542 E8.58558
G1 X161.236 Y159.365 E9.9942
G1 X161.217 Y160.145 E10.05259
G1 X161.145 Y160.416 E10.07357
G1 X161.003 Y160.678 E10.09588
G1 X160.837 Y160.87 E10.11487
G1 X160.406 Y161.144 E10.15309
G1 X160.053 Y161.222 E10.18014
G1 X159.414 Y161.231 E10.22797
G1 X140.606 Y161.236 E11.63547
G1 X139.932 Y161.225 E11.68592
G1 X139.695 Y161.172 E11.70409
G1 X139.363 Y161.022 E11.73135
G1 X139.135 Y160.841 E11.75314
G1 X138.951 Y160.602 E11.77571
G1 X138.845 Y160.384 E11.79385
G1 X138.778 Y160.057 E11.81883
G1 X138.768 Y159.38 E11.8695
G1 X138.764 Y140.599 E13.27498
G1 X138.775 Y139.926 E13.32535
G1 X138.83 Y139.685 E13.34385
G1 X138.98 Y139.359 E13.37071
G1 X139.158 Y139.135 E13.39212
M204 S500
G0 F4800 X139.525 Y139.61
M204 S1000
G1 F3600 X139.762 Y139.427 E13.41453
G1 X139.951 Y139.378 E13.42914
G1 X140.591 Y139.368 E13.47704
G1 X159.303 Y139.364 E14.87736
G1 X159.915 Y139.373 E14.92316
G1 X160.251 Y139.449 E14.94894
G1 X160.397 Y139.535 E14.96162
G1 X160.575 Y139.766 E14.98344
G1 X160.619 Y139.921 E14.9955
G1 X160.632 Y140.542 E15.04198
G1 X160.636 Y159.35 E16.44949
G1 X160.617 Y160.13 E16.50788
G1 X160.475 Y160.392 E16.53018
G1 X160.245 Y160.566 E16.55176
G1 X160.044 Y160.622 E16.56738
G1 X159.409 Y160.632 E16.6149
G1 X140.616 Y160.636 E18.02128
G1 X139.942 Y160.625 E18.07173
G1 X139.61 Y160.475 E18.09899
G1 X139.426 Y160.236 E18.12156
G1 X139.378 Y160.048 E18.13608
G1 X139.368 Y159.38 E18.18608
G1 X139.364 Y140.609 E19.59081
G1 X139.375 Y139.936 E19.64118
G1 X139.525 Y139.61 E19.66804
M204 S500
G1 F2400 E19.16804
;MESH:sample_cube_20mm.stl
G0 F4800 X139.273 Y139.331
G0 X160.052 Y139
G0 X160.889 Y139.518
G0 X161 Y159.427
G0 X159.435 Y159.428
M204 S250
;TYPE:WALL-INNER
G1 F2400 E19.66804
G1 F3600 X159.429 Y140.564 E21.07973
G1 X140.564 Y140.567 E22.4915
G1 X140.568 Y159.435 E23.90349
G1 X159.079 Y159.428 E25.28877
G0 F3240 X159.435 Y159.428
M204 S500
G0 F4800 X160.036 Y159.981
M204 S250
;TYPE:WALL-OUTER
G1 F3000 X160.03 Y140.001 E26.78398
G1 X159.986 Y139.964 E26.78828
G1 X140.001 Y139.966 E28.28386
G1 X139.964 Y140.011 E28.28822
G1 X139.968 Y159.994 E29.78366
G1 X140.016 Y160.036 E29.78843
G1 X159.7 Y160.028 E31.26149
G0 F2700 X159.992 Y160.028
G0 X160.036 Y159.981
M204 S500
G0 F4800 X160.036 Y159.581
G1 F2400 E30.76149
G0 F4800 X158.871 Y158.868
M204 S1000
;TYPE:SKIN
G1 F2400 E31.26149
G1 F3600 X141.128 Y158.871 E32.58929
G1 X141.125 Y141.125 E33.91732
G1 X158.868 Y141.125 E35.24512
G1 X158.871 Y158.868 E36.57292
M204 S500
G1 F2400 E36.07292
G0 F4800 X161 Y158.867
G0 X160.997 Y141.724
G0 X158.268 Y141.725
M204 S1000
G1 F2400 E36.57292
G1 F3600 X157.847 Y141.725 E36.60443
G1 X158.269 Y142.147 E36.64909
M204 S500
G0 F4800 X157.847 Y141.725
M204 S1000
G1 F3600 X156.998 Y141.725 E36.71263
G1 X158.269 Y142.995 E36.84709
G1 X158.269 Y143.844 E36.91062
G1 X156.15 Y141.725 E37.13488
G1 X155.301 Y141.725 E37.19842
G1 X158.269 Y144.692 E37.51248
G1 X158.269 Y145.541 E37.57601
G1 X154.453 Y141.725 E37.97987
G1 X153.604 Y141.725 E38.04341
G1 X158.27 Y146.39 E38.53717
G1 X158.27 Y147.239 E38.60071
G1 X152.756 Y141.725 E39.18427
G1 X151.907 Y141.725 E39.24781
G1 X158.27 Y148.087 E39.92117
G1 X158.27 Y148.936 E39.9847
G1 X151.059 Y141.725 E40.74787
G1 X150.21 Y141.725 E40.8114
G1 X158.27 Y149.784 E41.66436
G1 X158.27 Y150.634 E41.72797
G1 X149.361 Y141.725 E42.67084
G1 X148.513 Y141.725 E42.7343
G1 X158.27 Y151.482 E43.76691
G1 X158.27 Y152.331 E43.83045
G1 X147.664 Y141.725 E44.95292
G1 X146.816 Y141.725 E45.01638
G1 X158.27 Y153.179 E46.22859
G1 X158.27 Y154.028 E46.29212
G1 X145.967 Y141.725 E47.59419
G1 X145.119 Y141.725 E47.65765
G1 X158.271 Y154.877 E49.04957
G1 X158.271 Y155.725 E49.11303
G1 X144.27 Y141.725 E50.59474
G1 X143.422 Y141.725 E50.6582
G1 X158.271 Y156.574 E52.22972
G1 X158.271 Y157.422 E52.29318
G1 X142.573 Y141.725 E53.95449
G1 X141.725 Y141.725 E54.01795
G1 X158.268 Y158.268 E55.76875
G1 X157.42 Y158.268 E55.83221
G1 X141.725 Y142.573 E57.49326
G1 X141.725 Y143.422 E57.5568
G1 X156.571 Y158.268 E59.128
G1 X155.723 Y158.268 E59.19146
G1 X141.725 Y144.27 E60.67291
G1 X141.725 Y145.119 E60.73644
G1 X154.874 Y158.268 E62.12804
G1 X154.026 Y158.269 E62.1915
G1 X141.725 Y145.968 E63.49336
G1 X141.725 Y146.817 E63.55689
G1 X153.178 Y158.269 E64.76894
G1 X152.329 Y158.269 E64.83248
G1 X141.725 Y147.665 E65.95473
G1 X141.725 Y148.514 E66.01827
G1 X151.481 Y158.269 E67.05072
G1 X150.632 Y158.269 E67.11426
G1 X141.725 Y149.362 E68.05691
G1 X141.726 Y150.211 E68.12045
G1 X149.784 Y158.27 E68.97331
G1 X148.936 Y158.27 E69.03677
G1 X141.726 Y151.06 E69.79982
G1 X141.726 Y151.908 E69.86328
G1 X148.087 Y158.27 E70.53654
G1 X147.239 Y158.27 E70.6
G1 X141.726 Y152.757 E71.18346
G1 X141.726 Y153.606 E71.24699
G1 X146.39 Y158.27 E71.7406
G1 X145.542 Y158.27 E71.80406
G1 X141.727 Y154.455 E72.20781
G1 X141.727 Y155.303 E72.27127
G1 X144.694 Y158.27 E72.58528
G1 X143.845 Y158.27 E72.64881
G1 X141.727 Y156.152 E72.87297
G1 X141.727 Y157 E72.93643
G1 X142.997 Y158.27 E73.07084
G1 X142.148 Y158.27 E73.13437
G1 X141.727 Y157.849 E73.17893
M204 S500
G0 F4800 X141.728 Y158.271
M204 S1000
G1 F3600 X142.148 Y158.27 E73.21036
M204 S500
G1 F2400 E72.71036
;MESH:NONMESH
G0 F1200 Z0.4
G0 F4800 X142.149 Y161
G0 X159.816 Y160.997
G0 X159.815 Y159.812
;TIME_ELAPSED:32.453535
;LAYER:1
M106 S255
M204 S250
;TYPE:WALL-INNER
;MESH:sample_cube_20mm.stl
G1 F2400 E73.21036
G1 F3600 X159.813 Y140.18 E73.53684
G1 X140.18 Y140.183 E73.86334
G1 X140.184 Y159.815 E74.18982
G1 X158.215 Y159.812 E74.48968
G0 F3240 X159.815 Y159.812
M204 S500
G0 F8400 X160.216 Y160.025
M204 S250
;TYPE:WALL-OUTER
G1 F3000 X160.212 Y139.936 E74.82376
G1 X160.025 Y139.78 E74.82781
G1 X139.937 Y139.784 E75.16187
G1 X139.78 Y139.974 E75.16597
G1 X139.784 Y160.024 E75.49941
G1 X139.896 Y160.181 E75.50261
G1 X139.974 Y160.216 E75.50403
G1 X158.699 Y160.212 E75.81543
G0 F2700 X160.024 Y160.212
G0 X160.182 Y160.099
G0 X160.216 Y160.025
M204 S500
G0 F8400 X160.216 Y159.625
G0 X159.452 Y159.452
M204 S1000
;TYPE:SKIN
G1 F3600 X140.544 Y159.452 E76.12987
G1 X140.541 Y140.541 E76.44436
G1 X159.452 Y140.541 E76.75886
G1 X159.452 Y159.452 E77.07335
M204 S500
G0 F8400 X140.942 Y141.335
M204 S1000
G1 F3600 X140.941 Y140.941 E77.0799
M204 S500
G0 F8400 X140.942 Y141.335
M204 S1000
G1 F3600 X141.336 Y140.941 E77.08917
M204 S500
G0 F8400 X140.942 Y141.335
M204 S1000
G1 F3600 X140.942 Y141.901 E77.09858
G1 X141.901 Y140.941 E77.12114
G1 X142.467 Y140.941 E77.13056
G1 X140.942 Y142.466 E77.16642
G1 X140.942 Y143.032 E77.17584
G1 X143.033 Y140.941 E77.22501
G1 X143.599 Y140.941 E77.23442
G1 X140.942 Y143.598 E77.29691
G1 X140.942 Y144.164 E77.30633
G1 X144.164 Y140.941 E77.38211
G1 X144.73 Y140.941 E77.39153
G1 X140.942 Y144.729 E77.48061
G1 X140.942 Y145.295 E77.49003
G1 X145.296 Y140.941 E77.59243
G1 X145.861 Y140.941 E77.60182
G1 X140.943 Y145.86 E77.7175
G1 X140.943 Y146.426 E77.72691
G1 X146.427 Y140.941 E77.8559
G1 X146.993 Y140.941 E77.86531
G1 X140.943 Y146.991 E78.0076
G1 X140.943 Y147.557 E78.01701
G1 X147.558 Y140.941 E78.1726
G1 X148.124 Y140.941 E78.18201
G1 X140.943 Y148.123 E78.35091
G1 X140.943 Y148.688 E78.3603
G1 X148.69 Y140.941 E78.5425
G1 X149.255 Y140.941 E78.5519
G1 X140.943 Y149.254 E78.74739
G1 X140.943 Y149.82 E78.75681
G1 X149.821 Y140.941 E78.96562
G1 X150.387 Y140.941 E78.97503
G1 X140.943 Y150.385 E79.19714
G1 X140.943 Y150.95 E79.20653
G1 X150.952 Y140.941 E79.44193
G1 X151.518 Y140.941 E79.45134
G1 X140.943 Y151.516 E79.70005
G1 X140.943 Y152.082 E79.70946
G1 X152.084 Y140.941 E79.97148
G1 X152.65 Y140.941 E79.98089
G1 X140.943 Y152.647 E80.25621
G1 X140.943 Y153.213 E80.26562
G1 X153.215 Y140.941 E80.55424
G1 X153.781 Y140.941 E80.56366
G1 X140.943 Y153.779 E80.86559
G1 X140.943 Y154.344 E80.87498
G1 X154.347 Y140.941 E81.19021
G1 X154.912 Y140.941 E81.19961
G1 X140.944 Y154.909 E81.52811
G1 X140.944 Y155.475 E81.53753
G1 X155.478 Y140.941 E81.87934
G1 X156.044 Y140.941 E81.88876
G1 X140.944 Y156.041 E82.24389
G1 X140.944 Y156.606 E82.25328
G1 X156.609 Y140.941 E82.6217
G1 X157.175 Y140.941 E82.63111
G1 X140.944 Y157.172 E83.01284
G1 X140.944 Y157.738 E83.02225
G1 X157.741 Y140.941 E83.41729
G1 X158.306 Y140.941 E83.42669
G1 X140.944 Y158.304 E83.83503
G1 X140.944 Y158.869 E83.84442
G1 X158.872 Y140.941 E84.26606
G1 X159.052 Y140.941 E84.26906
G1 X159.052 Y141.327 E84.27547
G1 X141.327 Y159.052 E84.69234
G1 X141.893 Y159.052 E84.70175
G1 X159.052 Y141.893 E85.10531
G1 X159.052 Y142.459 E85.11472
G1 X142.459 Y159.052 E85.50496
G1 X143.024 Y159.052 E85.51436
G1 X159.052 Y143.024 E85.89131
G1 X159.052 Y143.59 E85.90072
G1 X143.59 Y159.052 E86.26436
G1 X144.156 Y159.052 E86.27378
G1 X159.052 Y144.156 E86.62411
G1 X159.052 Y144.721 E86.6335
G1 X144.721 Y159.052 E86.97055
G1 X145.287 Y159.052 E86.97996
G1 X159.052 Y145.287 E87.30369
G1 X159.052 Y145.853 E87.3131
G1 X145.853 Y159.052 E87.62352
G1 X146.418 Y159.052 E87.63292
G1 X159.052 Y146.418 E87.93005
G1 X159.052 Y146.984 E87.93947
G1 X146.984 Y159.052 E88.22329
G1 X147.55 Y159.052 E88.2327
G1 X159.052 Y147.55 E88.50321
G1 X159.052 Y148.116 E88.51262
G1 X148.116 Y159.052 E88.76982
G1 X148.681 Y159.052 E88.77922
G1 X159.052 Y148.681 E89.02313
G1 X159.052 Y149.247 E89.03254
G1 X149.247 Y159.052 E89.26314
G1 X149.813 Y159.052 E89.27255
G1 X159.052 Y149.813 E89.48984
G1 X159.052 Y150.378 E89.49923
G1 X150.378 Y159.052 E89.70323
G1 X150.944 Y159.052 E89.71264
G1 X159.052 Y150.944 E89.90333
G1 X159.052 Y151.51 E89.91274
G1 X151.51 Y159.052 E90.09012
G1 X152.075 Y159.052 E90.09952
G1 X159.052 Y152.075 E90.26361
G1 X159.052 Y152.641 E90.27302
G1 X152.641 Y159.052 E90.42379
G1 X153.207 Y159.052 E90.43321
G1 X159.052 Y153.207 E90.57067
G1 X159.052 Y153.772 E90.58007
G1 X153.772 Y159.052 E90.70425
G1 X154.338 Y159.052 E90.71366
G1 X159.052 Y154.338 E90.82452
G1 X159.052 Y154.904 E90.83394
G1 X154.904 Y159.052 E90.93149
G1 X155.469 Y159.052 E90.94089
G1 X159.052 Y155.469 E91.02515
G1 X159.052 Y156.035 E91.03457
G1 X156.035 Y159.052 E91.10552
G1 X156.601 Y159.052 E91.11494
G1 X159.052 Y156.601 E91.17258
G1 X159.052 Y157.167 E91.18199
G1 X157.167 Y159.052 E91.22632
G1 X157.732 Y159.052 E91.23572
G1 X159.052 Y157.732 E91.26676
G1 X159.052 Y158.298 E91.27618
G1 X158.298 Y159.052 E91.29391
G1 X158.864 Y159.052 E91.30332
G1 X159.052 Y158.864 E91.30774
G1 X159.052 Y159.052 E91.31087
M204 S500
;MESH:NONMESH
G0 F1200 Z0.5
G0 F8400 X159.539 Y159.534
G0 X159.9 Y159.9
;TIME_ELAPSED:62.723896
;LAYER:2
M204 S250
;TYPE:WALL-INNER
;MESH:sample_cube_20mm.stl
G1 F3600 X159.9 Y140.101 E91.64013
G1 X140.096 Y140.096 E91.96947
G1 X140.096 Y159.9 E92.29881
G1 X158.3 Y159.9 E92.60155
G0 F3240 X159.9 Y159.9
M204 S500
G0 F12000 X160.254 Y160.146
M204 S250
;TYPE:WALL-OUTER
G1 F3000 X160.3 Y160.042 E92.60344
G1 X160.3 Y139.98 E92.93707
G1 X160.27 Y139.885 E92.93873
G1 X160.157 Y139.757 E92.94157
G1 X159.936 Y139.696 E92.94538
G1 X139.983 Y139.696 E93.2772
G1 X139.885 Y139.727 E93.27891
G1 X139.745 Y139.85 E93.28201
G1 X139.696 Y139.959 E93.28399
G1 X139.696 Y160.016 E93.61754
G1 X139.727 Y160.112 E93.61922
G1 X139.85 Y160.254 E93.62235
G1 X139.957 Y160.3 E93.62428
G1 X158.705 Y160.3 E93.93606
G0 F2700 X160.016 Y160.3
G0 X160.112 Y160.269
G0 X160.254 Y160.146
M204 S500
G0 F12000 X160.3 Y160.042
G0 X160.3 Y159.756
G0 X159.54 Y159.54
M204 S1000
;TYPE:SKIN
G1 F3600 X140.456 Y159.54 E94.25343
G1 X140.456 Y140.456 E94.5708
G1 X159.54 Y140.456 E94.88817
G1 X159.54 Y159.54 E95.20554
M204 S500
G0 F12000 X159.14 Y140.856
M204 S1000
G1 F3600 X158.958 Y140.856 E95.20856
G1 X159.14 Y141.038 E95.21284
G1 X159.14 Y141.604 E95.22226
G1 X158.392 Y140.856 E95.23985
G1 X157.826 Y140.856 E95.24926
G1 X159.14 Y142.169 E95.28015
G1 X159.14 Y142.735 E95.28956
G1 X157.261 Y140.856 E95.33376
G1 X156.695 Y140.856 E95.34317
G1 X159.14 Y143.301 E95.40067
G1 X159.14 Y143.867 E95.41008
G1 X156.129 Y140.856 E95.4809
G1 X155.563 Y140.856 E95.49031
G1 X159.14 Y144.432 E95.57442
G1 X159.14 Y144.998 E95.58384
G1 X154.998 Y140.856 E95.68125
G1 X154.432 Y140.856 E95.69066
G1 X159.14 Y145.564 E95.80139
G1 X159.14 Y146.129 E95.81078
G1 X153.866 Y140.856 E95.93481
G1 X153.301 Y140.856 E95.9442
G1 X159.14 Y146.695 E96.08153
G1 X159.14 Y147.261 E96.09094
G1 X152.735 Y140.856 E96.24158
G1 X152.169 Y140.856 E96.25099
G1 X159.14 Y147.826 E96.41492
G1 X159.14 Y148.392 E96.42434
G1 X151.604 Y140.856 E96.60157
G1 X151.038 Y140.856 E96.61099
G1 X159.14 Y148.958 E96.80153
G1 X159.14 Y149.523 E96.81093
G1 X150.472 Y140.856 E97.01477
G1 X149.907 Y140.856 E97.02417
G1 X159.14 Y150.089 E97.24132
G1 X159.14 Y150.655 E97.25073
G1 X149.341 Y140.856 E97.48119
G1 X148.775 Y140.856 E97.4906
G1 X159.14 Y151.22 E97.73436
G1 X159.14 Y151.786 E97.74377
G1 X148.21 Y140.856 E98.00083
G1 X147.644 Y140.856 E98.01024
G1 X159.14 Y152.352 E98.28061
G1 X159.14 Y152.917 E98.29
G1 X147.078 Y140.856 E98.57367
G1 X146.513 Y140.856 E98.58307
G1 X159.14 Y153.483 E98.88003
G1 X159.14 Y154.049 E98.88945
G1 X145.947 Y140.856 E99.19973
G1 X145.381 Y140.856 E99.20914
G1 X159.14 Y154.615 E99.53273
G1 X159.14 Y155.18 E99.54212
G1 X144.815 Y140.856 E99.87902
G1 X144.25 Y140.856 E99.88841
G1 X159.14 Y155.746 E100.2386
G1 X159.14 Y156.312 E100.24801
G1 X143.684 Y140.856 E100.61152
G1 X143.118 Y140.856 E100.62093
G1 X159.14 Y156.877 E100.99773
G1 X159.14 Y157.443 E101.00714
G1 X142.553 Y140.856 E101.39724
G1 X141.987 Y140.856 E101.40666
G1 X159.14 Y158.009 E101.81007
G1 X159.14 Y158.574 E101.81946
G1 X141.421 Y140.856 E102.23618
G1 X140.856 Y140.856 E102.24557
G1 X159.14 Y159.14 E102.67558
G1 X158.574 Y159.14 E102.685
G1 X140.856 Y141.421 E103.10171
G1 X140.856 Y141.987 E103.11112
G1 X158.009 Y159.14 E103.51453
G1 X157.443 Y159.14 E103.52394
G1 X140.856 Y142.553 E103.91405
G1 X140.856 Y143.118 E103.92344
G1 X156.877 Y159.14 E104.30024
G1 X156.312 Y159.14 E104.30964
